resources/icons/20px/waves.svg

<svg width="20" height="20" viewBox="0 0 20 20" fill="none" xmlns="http://www.w3.org/2000/svg">
<path fill-rule="evenodd" clip-rule="evenodd" d="M4.94799 2.68169C4.81127 2.27449 4.4297 2 4 2C3.56975 2 3.18776 2.2752 3.05149 2.68325L3.04607 2.69868C3.0406 2.71406 3.03145 2.73928 3.01864 2.77291C2.99295 2.84034 2.95291 2.94061 2.89869 3.06261C2.78898 3.30945 2.62753 3.63093 2.41795 3.9453C1.95822 4.6349 1.46913 5 1 5C0.447715 5 0 5.44772 0 6C0 6.55228 0.447715 7 1 7C2.45652 7 3.44237 5.97266 4 5.1749C4.55763 5.97266 5.54348 7 7 7C8.45652 7 9.44237 5.97265 10 5.1749C10.5576 5.97265 11.5435 7 13 7C14.4565 7 15.4424 5.97265 16 5.1749C16.5576 5.97265 17.5435 7 19 7C19.5523 7 20 6.55228 20 6C20 5.44772 19.5523 5 19 5C18.5309 5 18.0418 4.6349 17.5821 3.9453C17.3725 3.63093 17.211 3.30945 17.1013 3.06261C17.0471 2.94061 17.007 2.84034 16.9814 2.77291C16.9685 2.73928 16.9594 2.71406 16.9539 2.69868L16.9485 2.68324C16.8123 2.27519 16.4302 2 16 2C15.5698 2 15.1878 2.2752 15.0515 2.68325L15.0461 2.69868C15.0406 2.71406 15.0314 2.73928 15.0186 2.77291C14.9929 2.84034 14.9529 2.94061 14.8987 3.06261C14.789 3.30945 14.6275 3.63093 14.4179 3.9453C13.9582 4.6349 13.4691 5 13 5C12.5309 5 12.0418 4.6349 11.5821 3.9453C11.3725 3.63093 11.211 3.30945 11.1013 3.06261C11.0471 2.94061 11.0071 2.84034 10.9814 2.77291C10.9686 2.73928 10.9594 2.71406 10.9539 2.69868L10.9485 2.68324C10.8123 2.27519 10.4302 2 10 2C9.56975 2 9.18776 2.2752 9.05149 2.68325L9.04607 2.69868C9.0406 2.71406 9.03145 2.73928 9.01864 2.77291C8.99295 2.84034 8.95291 2.94061 8.89869 3.06261C8.78898 3.30945 8.62753 3.63093 8.41795 3.9453C7.95822 4.6349 7.46913 5 7 5C6.53087 5 6.04178 4.6349 5.58205 3.9453C5.37247 3.63093 5.21102 3.30945 5.10131 3.06261C5.04709 2.94061 5.00705 2.84034 4.98136 2.77291C4.96855 2.73928 4.9594 2.71406 4.95393 2.69868L4.94833 2.68272L4.94799 2.68169ZM4.94833 8.68272L4.94799 8.68169C4.81127 8.27449 4.4297 8 4 8C3.56975 8 3.18776 8.2752 3.05149 8.68325L3.04607 8.69868C3.0406 8.71406 3.03145 8.73928 3.01864 8.77291C2.99295 8.84034 2.95291 8.94061 2.89869 9.06261C2.78898 9.30945 2.62753 9.63093 2.41795 9.9453C1.95822 10.6349 1.46913 11 1 11C0.447715 11 0 11.4477 0 12C0 12.5523 0.447715 13 1 13C2.45652 13 3.44237 11.9727 4 11.1749C4.55763 11.9727 5.54348 13 7 13C8.45652 13 9.44237 11.9727 10 11.1749C10.5576 11.9727 11.5435 13 13 13C14.4565 13 15.4424 11.9727 16 11.1749C16.5576 11.9727 17.5435 13 19 13C19.5523 13 20 12.5523 20 12C20 11.4477 19.5523 11 19 11C18.5309 11 18.0418 10.6349 17.5821 9.9453C17.3725 9.63093 17.211 9.30945 17.1013 9.06261C17.0471 8.94061 17.007 8.84034 16.9814 8.77291C16.9685 8.73928 16.9594 8.71406 16.9539 8.69868L16.9485 8.68324C16.8123 8.27519 16.4302 8 16 8C15.5698 8 15.1878 8.2752 15.0515 8.68325L15.0461 8.69868C15.0406 8.71406 15.0314 8.73928 15.0186 8.77291C14.9929 8.84034 14.9529 8.94061 14.8987 9.06261C14.789 9.30945 14.6275 9.63093 14.4179 9.9453C13.9582 10.6349 13.4691 11 13 11C12.5309 11 12.0418 10.6349 11.5821 9.9453C11.3725 9.63093 11.211 9.30945 11.1013 9.06261C11.0471 8.94061 11.0071 8.84034 10.9814 8.77291C10.9686 8.73928 10.9594 8.71406 10.9539 8.69868L10.9485 8.68324C10.8123 8.27519 10.4302 8 10 8C9.56975 8 9.18776 8.2752 9.05149 8.68325L9.04607 8.69868C9.0406 8.71406 9.03145 8.73928 9.01864 8.77291C8.99295 8.84034 8.95291 8.94061 8.89869 9.06261C8.78898 9.30945 8.62753 9.63093 8.41795 9.9453C7.95822 10.6349 7.46913 11 7 11C6.53087 11 6.04178 10.6349 5.58205 9.9453C5.37247 9.63093 5.21102 9.30945 5.10131 9.06261C5.04709 8.94061 5.00705 8.84034 4.98136 8.77291C4.96855 8.73928 4.9594 8.71406 4.95393 8.69868L4.94833 8.68272ZM3.05189 2.68208C3.0519 2.68203 3.05189 2.68205 3.05188 2.68208L3.05189 2.68208ZM4.94799 14.6817L4.94833 14.6827L4.95393 14.6987C4.9594 14.7141 4.96855 14.7393 4.98136 14.7729C5.00705 14.8403 5.04709 14.9406 5.10131 15.0626C5.21102 15.3094 5.37247 15.6309 5.58205 15.9453C6.04178 16.6349 6.53087 17 7 17C7.46913 17 7.95822 16.6349 8.41795 15.9453C8.62753 15.6309 8.78898 15.3094 8.89869 15.0626C8.95291 14.9406 8.99295 14.8403 9.01864 14.7729C9.03145 14.7393 9.0406 14.7141 9.04607 14.6987L9.05149 14.6832C9.18776 14.2752 9.56975 14 10 14C10.4302 14 10.8123 14.2752 10.9485 14.6832L10.9539 14.6987C10.9594 14.7141 10.9686 14.7393 10.9814 14.7729C11.0071 14.8403 11.0471 14.9406 11.1013 15.0626C11.211 15.3094 11.3725 15.6309 11.5821 15.9453C12.0418 16.6349 12.5309 17 13 17C13.4691 17 13.9582 16.6349 14.4179 15.9453C14.6275 15.6309 14.789 15.3094 14.8987 15.0626C14.9529 14.9406 14.9929 14.8403 15.0186 14.7729C15.0314 14.7393 15.0406 14.7141 15.0461 14.6987L15.0515 14.6832C15.1878 14.2752 15.5698 14 16 14C16.4302 14 16.8123 14.2752 16.9485 14.6832L16.9539 14.6987C16.9594 14.7141 16.9685 14.7393 16.9814 14.7729C17.007 14.8403 17.0471 14.9406 17.1013 15.0626C17.211 15.3094 17.3725 15.6309 17.5821 15.9453C18.0418 16.6349 18.5309 17 19 17C19.5523 17 20 17.4477 20 18C20 18.5523 19.5523 19 19 19C17.5435 19 16.5576 17.9727 16 17.1749C15.4424 17.9727 14.4565 19 13 19C11.5435 19 10.5576 17.9727 10 17.1749C9.44237 17.9727 8.45652 19 7 19C5.54348 19 4.55763 17.9727 4 17.1749C3.44237 17.9727 2.45652 19 1 19C0.447715 19 0 18.5523 0 18C0 17.4477 0.447715 17 1 17C1.46913 17 1.95822 16.6349 2.41795 15.9453C2.62753 15.6309 2.78898 15.3094 2.89869 15.0626C2.95291 14.9406 2.99295 14.8403 3.01864 14.7729C3.03145 14.7393 3.0406 14.7141 3.04607 14.6987L3.05149 14.6832C3.18776 14.2752 3.56975 14 4 14C4.4297 14 4.81127 14.2745 4.94799 14.6817Z" fill="#5C7080"/>
</svg>

<svg xmlns="http://www.w3.org/2000/svg" viewBox="0 0 20 20">
  <path d="M4.948 2.682a1 1 0 0 0-1.897.001l-.005.016-.027.074a6.05 6.05 0 0 1-.6 1.172C1.958 4.635 1.468 5 .999 5a1 1 0 0 0 0 2c1.457 0 2.442-1.027 3-1.825C4.558 5.973 5.543 7 7 7s2.442-1.027 3-1.825C10.558 5.973 11.543 7 13 7s2.442-1.027 3-1.825C16.558 5.973 17.544 7 19 7a1 1 0 1 0 0-2c-.47 0-.958-.365-1.418-1.055a6 6 0 0 1-.628-1.246l-.006-.016a1 1 0 0 0-1.896 0l-.006.016-.027.074a6.048 6.048 0 0 1-.6 1.172c-.46.69-.95 1.055-1.419 1.055s-.958-.365-1.418-1.055a6 6 0 0 1-.628-1.246l-.006-.016a1 1 0 0 0-1.897 0l-.005.016-.027.074a6.05 6.05 0 0 1-.6 1.172C7.958 4.635 7.468 5 6.999 5s-.958-.365-1.418-1.055A6 6 0 0 1 4.954 2.7zm0 6a1 1 0 0 0-1.897.001l-.005.016-.027.074a6.05 6.05 0 0 1-.6 1.172c-.46.69-.95 1.055-1.419 1.055a1 1 0 1 0 0 2c1.457 0 2.442-1.027 3-1.825C4.558 11.973 5.543 13 7 13s2.442-1.027 3-1.825c.558.798 1.543 1.825 3 1.825s2.442-1.027 3-1.825c.558.798 1.544 1.825 3 1.825a1 1 0 1 0 0-2c-.47 0-.958-.365-1.418-1.055a6 6 0 0 1-.628-1.246l-.006-.016a1 1 0 0 0-1.896 0l-.006.016-.027.074a6.048 6.048 0 0 1-.6 1.172c-.46.69-.95 1.055-1.419 1.055s-.958-.365-1.418-1.055a6 6 0 0 1-.628-1.246l-.006-.016a1 1 0 0 0-1.897 0l-.005.016-.027.074a6.05 6.05 0 0 1-.6 1.172c-.46.69-.95 1.055-1.419 1.055s-.958-.365-1.418-1.055A6 6 0 0 1 4.954 8.7zm0 6 .006.017.027.074a6.053 6.053 0 0 0 .6 1.172c.46.69.95 1.055 1.419 1.055s.958-.365 1.418-1.055a6 6 0 0 0 .628-1.246l.005-.016a1 1 0 0 1 1.897 0l.006.016.027.074a6.051 6.051 0 0 0 .6 1.172c.46.69.95 1.055 1.419 1.055s.958-.365 1.418-1.055a6 6 0 0 0 .628-1.246l.006-.016a1 1 0 0 1 1.896 0l.006.016.027.074a6.051 6.051 0 0 0 .6 1.172c.46.69.95 1.055 1.419 1.055a1 1 0 1 1 0 2c-1.456 0-2.442-1.027-3-1.825-.558.798-1.543 1.825-3 1.825s-2.442-1.027-3-1.825C9.442 17.973 8.457 19 7 19s-2.442-1.027-3-1.825C3.442 17.973 2.457 19 1 19a1 1 0 1 1 0-2c.47 0 .958-.365 1.418-1.055a6 6 0 0 0 .628-1.246l.005-.016a1 1 0 0 1 1.897-.001"/>
</svg>
